Sources/FrostedUI/Resources/Icons.xcassets/pictureInPicture24.imageset/picture-in-picture-24.svg

<svg width="24" height="24" viewBox="0 0 24 24" fill="none" xmlns="http://www.w3.org/2000/svg" data-fui-icon="true">
  <path
    d="M17.1455 2.63184C19.9193 2.77262 22.125 5.06623 22.125 7.875V16.125C22.125 19.0245 19.7745 21.375 16.875 21.375H7.125C4.22551 21.375 1.875 19.0245 1.875 16.125V7.875C1.875 4.97551 4.22551 2.625 7.125 2.625H16.875L17.1455 2.63184ZM13.875 12.75C13.2537 12.75 12.75 13.2537 12.75 13.875V19.875H16.875C18.9461 19.875 20.625 18.1961 20.625 16.125V12.75H13.875ZM7.125 4.125C5.05393 4.125 3.375 5.80393 3.375 7.875V16.125C3.375 18.1961 5.05393 19.875 7.125 19.875H11.25V13.875C11.25 12.4253 12.4253 11.25 13.875 11.25H20.625V7.875C20.625 5.86878 19.0496 4.23051 17.0684 4.12988L16.875 4.125H7.125Z"
    fill="currentColor"
  />
</svg>

<svg xmlns="http://www.w3.org/2000/svg" width="24" height="24" fill="none" data-fui-icon="true" viewBox="0 0 24 24"><path fill="currentColor" d="M17.146 2.632a5.25 5.25 0 0 1 4.979 5.243v8.25c0 2.9-2.35 5.25-5.25 5.25h-9.75a5.25 5.25 0 0 1-5.25-5.25v-8.25c0-2.9 2.35-5.25 5.25-5.25h9.75zM13.874 12.75c-.621 0-1.125.504-1.125 1.125v6h4.125a3.75 3.75 0 0 0 3.75-3.75V12.75zm-6.75-8.625a3.75 3.75 0 0 0-3.75 3.75v8.25a3.75 3.75 0 0 0 3.75 3.75h4.125v-6a2.625 2.625 0 0 1 2.625-2.625h6.75V7.875a3.75 3.75 0 0 0-3.557-3.745l-.193-.005z"/></svg>
